Betaversie/Icons/bell.svg

﻿<?xml version="1.0" encoding="utf-8"?>
<!DOCTYPE svg PUBLIC "-//W3C//DTD SVG 1.1//EN" "http://www.w3.org/Graphics/SVG/1.1/DTD/svg11.dtd">
<svg xmlns="http://www.w3.org/2000/svg" xmlns:xlink="http://www.w3.org/1999/xlink" version="1.1" baseProfile="full" width="24" height="24" viewBox="0 0 24.00 24.00" enable-background="new 0 0 24.00 24.00" xml:space="preserve">
	<path fill="#000000" fill-opacity="1" stroke-width="0.2" stroke-linejoin="round" d="M 12,4.5C 12,4.22386 11.7761,4 11.5,4C 11.2239,4 11,4.22386 11,4.5L 11,6.02748C 8.75002,6.2762 6.99999,8.18372 6.99999,10.5L 6.99999,16.4142L 5.41421,18L 17.5858,18L 16,16.4142L 16,10.5C 16,8.18372 14.25,6.2762 12,6.02748L 12,4.5 Z M 11.5,3.00002C 12.3284,3.00002 13,3.6716 13,4.50001L 13,5.20704C 15.3085,5.85996 17,7.98245 17,10.5L 17,16L 20,19L 3,19L 6,16L 5.99999,10.5C 5.99999,7.98245 7.69149,5.85996 10,5.20704L 10,4.50001C 10,3.6716 10.6716,3.00002 11.5,3.00002 Z M 11.5,22C 10.2905,22 9.28164,21.1411 9.05001,20L 10.0854,20C 10.2913,20.5826 10.8469,21 11.5,21C 12.1531,21 12.7087,20.5826 12.9146,20L 13.95,20C 13.7184,21.1411 12.7095,22 11.5,22 Z "/>
</svg>

<?xml version="1.0" encoding="utf-8"?>
<!-- Generator: Adobe Illustrator 22.0.1, SVG Export Plug-In . SVG Version: 6.00 Build 0)  -->
<svg version="1.1" id="Layer_1" xmlns="http://www.w3.org/2000/svg" xmlns:xlink="http://www.w3.org/1999/xlink" x="0px" y="0px"
	 viewBox="0 0 24 24" style="enable-background:new 0 0 24 24;" xml:space="preserve">
<style type="text/css">
	.st0{fill:#FFFFFF;}
</style>
<path class="st0" d="M12,4.5C12,4.2,11.8,4,11.5,4S11,4.2,11,4.5V6c-2.2,0.2-4,2.2-4,4.5v5.9L5.4,18h12.2L16,16.4v-5.9
	c0-2.3-1.8-4.2-4-4.5V4.5z M11.5,3C12.3,3,13,3.7,13,4.5v0.7c2.3,0.7,4,2.8,4,5.3V16l3,3H3l3-3l0-5.5C6,8,7.7,5.9,10,5.2V4.5
	C10,3.7,10.7,3,11.5,3z M11.5,22c-1.2,0-2.2-0.9-2.4-2h1c0.2,0.6,0.8,1,1.4,1s1.2-0.4,1.4-1h1C13.7,21.1,12.7,22,11.5,22z"/>
</svg>
